X: 042000
T: Delights of Inchicore (2nd setting)
C: BB
R: jig
Q: 320
M: 6/8
L: 1/8
K: A 
B | "A"EAB cBA | "E"BcB BGF | "A"EAc e^de | "B"fe^d "E"e2 B |
"A"EAB cBA | "E"BcB Bcd | "A"efe "F#m"cAF | "E"EFG "A"A2 :|
B | "A"eaa gaa | "E"gab aed | "A"cAc "D"dcd | "E"ef^d e2 B |
"A"eaa bab | "F#m"c'ba "E"ged |"A"cde "F#m"cAF | EFG "A"A2 :|
